X: 65
T: No_15_Pledge_Song.krn
%%abc-version 2.0
%%abcx-abcm2ps-target-version 5.9.1 (29 Sep 2008)
%%abc-creator hum2abc beta
%%abcx-conversion-date 2020/08/10 18:54:57
%%gracespace 0 6 6
%%humdrum-veritas 172154693
%%humdrum-veritas-data 1411053738
%%linebreak <none>
%%barnumbers 0
L: 1/8
M: 2/4
%%staves {1 2}
V: 1 clef=bass
V: 2 clef=bass
K: C
[V:1] [K:clef=bass][M:2/4]E2E2 ||  
[V:2] [K:clef=bass][M:2/4]!accent!G,,2!accent!G,,2 ||  
[V:1] [M:3/4]EE EEE2 ||  
[V:2] [M:3/4]!accent!G,,2!accent!G,,2!accent!G,,2 ||  
[V:1] [M:2/4]D2C2 ||  
[V:2] [M:2/4]z4 ||  
[V:1] [M:3/4]DC A,A,A,2 ||  
[V:2] [M:3/4]z6 ||  
[V:1] [M:2/4]F,2E,2 ||  
[V:2] [M:2/4]z4 ||  
[V:1] [M:3/4]A,A, A,A,A,2 ||  
[V:2] [M:3/4]z6 ||  
[V:1] [M:2/4]F,2E,2 ||  
[V:2] [M:2/4]z4 ||  
[V:1] [M:3/4]E,E, E,E,E,2 ||  
[V:2] [M:3/4]z6 ||  
[V:1] [M:2/4]!accent!DD DC ||  
[V:2] [M:2/4]z4 ||  
[V:1] [M:3/4]DC A,A,A,2 ||  
[V:2] [M:3/4]z6 ||  
[V:1] [M:2/4]F,2E,2 ||  
[V:2] [M:2/4]z4 ||  
[V:1] [M:3/4]A,A, A,A,A,2 ||  
[V:2] [M:3/4]z6 ||  
[V:1] [M:2/4]F,2E,2 ||  
[V:2] [M:2/4]z4 ||  
[V:1] [M:3/4]E,E, E,E,E,2 ||  
[V:2] [M:3/4]z6 ||  
[V:1] [M:2/4]E,2E,2 |]  
[V:2] [M:2/4]z4 |]  


